X:1
T:Title
%%score { ( 1 4 ) | ( 2 3 ) }
L:1/8
Q:1/4=100
M:6/8
K:Ab
V:1 treble nm="Grand Piano"
V:4 treble 
V:2 bass 
V:3 bass 
V:1
 [Ec][DB][CA] [CE][CA][Fd] | [Ec]3 [CEA]2 [Ec] | BBc d2 c | B3- B2 B | [Ec][DB][CA] .[A,CE]2 [Ec] | %5
w: J.~J.~Jelley * * * * *|||||
 [Fd]3 [DF]2 [Ec] | BGE [=DF]2 [Dc] | B3- B2 B | BBB A2 A | [=EG]3 [EG]2 [EG] | FFF BAF | %11
w: ||||||
 [CE]3- [CE]2 [CE] | [Ec][DB][CA] [CE][CA][Ec] | [Fd]3 [DF]2 [FB] | [Ec]BA B2 G | [CA]6 | %16
w: |||||
 [Ec][Ec][Ec] BBB | A3 z3 | [A,F]2 [=A,F] [B,=DG][Dc][DB] | [EB]6 | [Ec][DB][CA] [CE][CA][Ec] | %21
w: |||||
 [Fd]3 [DF]2 [FB] | [Ec]BA B2 G | [CA]6 |] %24
w: |||
V:2
 [A,,A,][A,,E,][A,,E,] [A,,A,][A,,A,][A,,A,] | [A,,A,]3 A,,2 [A,,A,] | %2
 [E,G,E][E,G,E][E,A,E] [E,B,E]2 [E,A,E] | [E,G,E]3- [E,G,E]2 [E,G,E] | %4
 [A,,A,][A,,E,][A,,E,] z A[A,,A,] | [D,A,]3 [D,A,]2 [A,,A,] | G,B,[B,,G,] [B,,A,]2 [B,,A,] | %7
 [E,G,E]3- [E,G,E]2 [E,G,E] | [E,G,D][E,G,D][E,G,D] [F,A,C]2 [F,CF] | [C,B,]3 [C,B,]2 [C,B,] | %10
 [D,A,][D,A,][D,A,] [D,A,]2 [D,A,D] | [A,,A,]3- [A,,A,]2 [A,,A,] | %12
 [A,,A,][A,,E,][A,,E,] [A,,A,][A,,A,][A,,A,] | [D,A,]3 [D,A,]2 [=D,A,] | %14
 [E,A,][E,D][E,C] [E,G,D]2 [E,B,D] | [A,,A,]6 | [A,,A,][A,,A,][A,,A,] [E,G,D][E,G,D][E,G,D] | %17
 [A,C]2 C C,2 C, | D,2 C, B,,[B,,A,][B,,A,] | [E,G,]6 | %20
 [A,,A,][A,,E,][A,,E,] [A,,A,][A,,A,][A,,A,] | [D,A,]3 [D,A,]2 [=D,A,] | %22
 [D,A,][E,D][E,C] [E,G,D]2 [E,B,D] | [A,,A,]6 |] %24
V:3
 x6 | x6 | x6 | x6 | z3 .A,,3 | x6 | .B,,3 z3 | x6 | x6 | x6 | x6 | x6 | x6 | x6 | x6 | x6 | x6 | %17
 F,3 z3 | x6 | x6 | x6 | x6 | x6 | x6 |] %24
V:4
 x6 | x6 | x6 | x6 | x6 | x6 | .E3 z3 | x6 | x6 | x6 | z3 .F3 | x6 | x6 | x6 | x6 | x6 | x6 | %17
 z2 F [B,=EG]2 [B,EG] | z2 E- E z z | x6 | x6 | x6 | x6 | x6 |] %24

